branding/CircledIcon.svg

<svg height="1024pt" viewBox="0 0 1024 1024" width="1024pt" xmlns="http://www.w3.org/2000/svg" xmlns:xlink="http://www.w3.org/1999/xlink"><clipPath id="a"><path d="m0 0h1024v1024h-1024z"/></clipPath><clipPath id="b"><circle cx="512" cy="512" r="460.8"/></clipPath><filter id="c" color-interpolation-filters="sRGB" height="400%" width="400%" x="-200%" y="-200%"><feGaussianBlur in="SourceGraphic" stdDeviation="20.60932350163" xmlns="http://www.w3.org/2000/svg"/><feOffset dx="0" dy="24" result="pf_100_offsetBlur" xmlns="http://www.w3.org/2000/svg"/><feFlood flood-opacity=".65" xmlns="http://www.w3.org/2000/svg"/><feComposite in2="pf_100_offsetBlur" operator="in" result="pf_100_dropShadow" xmlns="http://www.w3.org/2000/svg"/><feBlend in="SourceGraphic" in2="pf_100_dropShadow" mode="normal" xmlns="http://www.w3.org/2000/svg"/></filter><g clip-path="url(#a)"><path d="m0 0h1024v1024h-1024z" fill="none"/><g filter="url(#c)"><circle cx="512" cy="512" fill="#fff" r="460.8"/><g clip-path="url(#b)"><path d="m73.776 1189.114c-37.024-82.145 17.779-308.508 93.336-528.857 10.09-29.425 20.3-57.55 30.632-84.375q122.114-317.065 266.745-392.01-4.948 59.855-2.676 82.109 2.272 22.253 6.298 39.561 46.053-3.268 108.276 3.01 62.223 6.277 106.608 23.476 45.431-38.347 82.461-56.146 37.03-17.8 98.795-26.976-87.308 332.846-88.506 456.868c-1.959 202.908 22.764 333.402 29.578 390.77 26.328 2.16 51.663-2.061 89.143-18.289 21.592-9.348 49.837-35.561 38.885-76.248-7.096-26.364-43.362-29.291-64.5-25.242-8.747 1.676-26.628.27-31.501-13.449-5.518-15.535 6.779-28.234 17.313-33.274 23.16-11.082 70.675-21.454 107.472 9.36 31.146 26.08 34.122 67.367 29.754 99.073-4.114 29.865-24.758 53.472-42.005 68.043-33.31 28.14-91.297 47.828-138.111 56.973-1.445 32.071-28.305 45.848-49.323 56.333-67.091 33.468-194.281 55.574-327.004 56.512-191.823 1.357-335.181-28.451-361.67-87.222z" fill="#446adb"/><g fill="#fff"><path d="m437.404 575.052c-.553-2.532-.042-5.118 1.448-7.325 1.383-2.202 3.655-3.702 6.192-4.148 2.532-.553 5.224-.048 7.32 1.341 2.207 1.49 3.702 3.655 4.254 6.187.585 3.171 1.691 6.102 3.218 8.906.824 1.558 2.063 2.883 3.398 3.99 1.436.995 2.974 1.878 4.697 2.218 2.921.815 6.027 1.086 9.112.933 3.299-.165 6.57-.861 9.72-1.872 1.675-.617 3.34-1.446 4.665-2.685 1.229-1.022 2.235-2.245 2.91-3.665 1.07-2.08 1.81-4.357 2.225-6.724.404-2.58 1.783-4.888 3.836-6.484 2.059-1.489 4.692-2.154 7.272-1.749s4.889 1.783 6.378 3.841c1.595 2.054 2.26 4.687 1.855 7.267-.734 4.516-2.123 8.745-4.161 12.793-1.841 3.718-4.448 7.048-7.624 9.66-3.272 2.829-7.007 4.935-11.103 6.206-4.825 1.627-9.788 2.621-14.89 2.982-5.107.255-10.144-.24-15.006-1.491-4.319-1.064-8.367-3.102-11.809-5.81-3.548-2.703-6.489-6.076-8.6-9.917-2.468-4.57-4.308-9.385-5.307-14.454z"/><path d="m437.107 381.486c20.666 4.127 7.305 45.315 1.723 63.071-5.583 17.755-17.547 59.448-34.863 56.787-17.315-2.66-13.879-44.832-6.773-70.215 7.105-25.384 19.247-53.77 39.913-49.643z"/><path d="m613.974 399.222c20.666 4.127 11.174 44.723 5.592 62.479-5.583 17.756-17.548 59.449-34.863 56.788s-13.879-44.833-6.774-70.216c7.106-25.383 15.379-53.179 36.045-49.051z"/></g></g></g></g></svg>

<?xml version="1.0" encoding="UTF-8" standalone="no"?><!-- Generator: Gravit.io --><svg xmlns="http://www.w3.org/2000/svg" xmlns:xlink="http://www.w3.org/1999/xlink" style="isolation:isolate" viewBox="0 0 1024 1024" width="1024pt" height="1024pt"><defs><clipPath id="_clipPath_liMWz34Yy8znU8msFpkGRhlBvvmbE18H"><rect width="1024" height="1024"/></clipPath></defs><g clip-path="url(#_clipPath_liMWz34Yy8znU8msFpkGRhlBvvmbE18H)"><rect width="1024" height="1024" style="fill:rgb(0,0,0)" fill-opacity="0"/><g filter="url(#hhWrUS7Y4oJBVoxuJszUVGFhH0A1lMp1)"><circle vector-effect="non-scaling-stroke" cx="511.99999999999994" cy="511.99999999999994" r="460.79999999999995" fill="rgb(255,255,255)"/><clipPath id="_clipPath_UOXvVpXzVBg9qD4mDaXOhWhrzBqllnBl"><circle vector-effect="non-scaling-stroke" cx="511.99999999999994" cy="511.99999999999994" r="460.79999999999995" fill="rgb(255,255,255)"/></clipPath><g clip-path="url(#_clipPath_UOXvVpXzVBg9qD4mDaXOhWhrzBqllnBl)"><g><g><path d=" M 73.776 1189.114 C 36.752 1106.969 91.555 880.606 167.112 660.257 C 177.202 630.832 187.412 602.707 197.744 575.882 Q 319.858 258.817 464.489 183.872 Q 459.541 243.727 461.813 265.981 Q 464.085 288.234 468.111 305.542 Q 514.164 302.274 576.387 308.552 Q 638.61 314.829 682.995 332.028 Q 728.426 293.681 765.456 275.882 Q 802.486 258.082 864.251 248.906 Q 776.943 581.752 775.745 705.774 C 773.786 908.682 798.509 1039.176 805.323 1096.544 C 831.651 1098.704 856.986 1094.483 894.466 1078.255 C 916.058 1068.907 944.303 1042.694 933.351 1002.007 C 926.255 975.643 889.989 972.716 868.851 976.765 C 860.104 978.441 842.223 977.035 837.35 963.316 C 831.832 947.781 844.129 935.082 854.663 930.042 C 877.823 918.96 925.338 908.588 962.135 939.402 C 993.281 965.482 996.257 1006.769 991.889 1038.475 C 987.775 1068.34 967.131 1091.947 949.884 1106.518 C 916.574 1134.658 858.587 1154.346 811.773 1163.491 C 810.328 1195.562 783.468 1209.339 762.45 1219.824 C 695.359 1253.292 568.169 1275.398 435.446 1276.336 C 243.623 1277.693 100.265 1247.885 73.776 1189.114 Z " fill="rgb(68,106,219)"/><path d=" M 437.404 575.052 C 436.851 572.52 437.362 569.934 438.852 567.727 C 440.235 565.525 442.507 564.025 445.044 563.579 C 447.576 563.026 450.268 563.531 452.364 564.92 C 454.571 566.41 456.066 568.575 456.618 571.107 C 457.203 574.278 458.309 577.209 459.836 580.013 C 460.66 581.571 461.899 582.896 463.234 584.003 C 464.67 584.998 466.208 585.881 467.931 586.221 C 470.852 587.036 473.958 587.307 477.043 587.154 C 480.342 586.989 483.613 586.293 486.763 585.282 C 488.438 584.665 490.103 583.836 491.428 582.597 C 492.657 581.575 493.663 580.352 494.338 578.932 C 495.408 576.852 496.148 574.575 496.563 572.208 C 496.967 569.628 498.346 567.32 500.399 565.724 C 502.458 564.235 505.091 563.57 507.671 563.975 C 510.251 564.38 512.56 565.758 514.049 567.816 C 515.644 569.87 516.309 572.503 515.904 575.083 C 515.17 579.599 513.781 583.828 511.743 587.876 C 509.902 591.594 507.295 594.924 504.119 597.536 C 500.847 600.365 497.112 602.471 493.016 603.742 C 488.191 605.369 483.228 606.363 478.126 606.724 C 473.019 606.979 467.982 606.484 463.12 605.233 C 458.801 604.169 454.753 602.131 451.311 599.423 C 447.763 596.72 444.822 593.347 442.711 589.506 C 440.243 584.936 438.403 580.121 437.404 575.052 Z " fill="rgb(255,255,255)"/><path d=" M 437.107 381.486 C 457.773 385.613 444.412 426.801 438.83 444.557 C 433.247 462.312 421.283 504.005 403.967 501.344 C 386.652 498.684 390.088 456.512 397.194 431.129 C 404.299 405.745 416.441 377.359 437.107 381.486 Z " fill="rgb(255,255,255)"/><path d=" M 613.974 399.222 C 634.64 403.349 625.148 443.945 619.566 461.701 C 613.983 479.457 602.018 521.15 584.703 518.489 C 567.388 515.828 570.824 473.656 577.929 448.273 C 585.035 422.89 593.308 395.094 613.974 399.222 Z " fill="rgb(255,255,255)"/></g></g></g></g><defs><filter id="hhWrUS7Y4oJBVoxuJszUVGFhH0A1lMp1" x="-200%" y="-200%" width="400%" height="400%" filterUnits="objectBoundingBox" color-interpolation-filters="sRGB"><feGaussianBlur xmlns="http://www.w3.org/2000/svg" in="SourceGraphic" stdDeviation="20.609323501627337"/><feOffset xmlns="http://www.w3.org/2000/svg" dx="0" dy="24" result="pf_100_offsetBlur"/><feFlood xmlns="http://www.w3.org/2000/svg" flood-color="#000000" flood-opacity="0.65"/><feComposite xmlns="http://www.w3.org/2000/svg" in2="pf_100_offsetBlur" operator="in" result="pf_100_dropShadow"/><feBlend xmlns="http://www.w3.org/2000/svg" in="SourceGraphic" in2="pf_100_dropShadow" mode="normal"/></filter></defs></g></svg>
